web/packages/design/src/ResourceIcon/assets/salesforce.svg

<svg width="72" height="72" viewBox="0 0 72 72" fill="none" xmlns="http://www.w3.org/2000/svg">
<path fill-rule="evenodd" clip-rule="evenodd" d="M29.9623 16.2962C32.2837 13.8779 35.5177 12.3763 39.0927 12.3763C43.8449 12.3763 47.9924 15.0268 50.2004 18.9617C52.176 18.0792 54.3158 17.6244 56.4795 17.627C65.0516 17.627 72 24.6368 72 33.2853C72 41.9338 65.0516 48.9436 56.4795 48.9436C55.4314 48.9436 54.4093 48.8389 53.421 48.6397C51.4768 52.1068 47.7696 54.4502 43.5166 54.4502C41.7362 54.4502 40.0518 54.0407 38.5533 53.3076C36.5815 57.9457 31.9884 61.1963 26.6361 61.1963C21.0626 61.1963 16.3112 57.6685 14.4882 52.7226C13.676 52.894 12.8481 52.9803 12.018 52.9801C5.38064 52.9808 3.33804e-05 47.5443 3.33804e-05 40.8377C-0.00494607 38.7123 0.547255 36.6227 1.60159 34.7772C2.65593 32.9317 4.17557 31.3949 6.00902 30.3198C5.24838 28.5671 4.85703 26.6765 4.85935 24.7659C4.85935 17.0521 11.1203 10.7998 18.8436 10.7998C20.9951 10.7973 23.1181 11.2921 25.0468 12.2455C26.9755 13.1989 28.6578 14.5852 29.9623 16.2962Z" fill="#00A1E0"/>
<path fill-rule="evenodd" clip-rule="evenodd" d="M10.4289 36.935L10.7203 36.1263C10.7667 35.9877 10.8715 36.0334 10.914 36.0594C10.9951 36.1074 11.0534 36.1507 11.1581 36.2122C12.0164 36.7547 12.8117 36.7602 13.0598 36.7602C13.7023 36.7602 14.1008 36.4201 14.1008 35.961V35.9373C14.1008 35.4381 13.4866 35.2491 12.7771 35.0318L12.6196 34.9814C11.6455 34.7042 10.6037 34.3034 10.6037 33.0703V33.0451C10.6037 31.8749 11.5479 31.0583 12.8991 31.0583L13.0472 31.0568C13.8409 31.0568 14.6079 31.2875 15.1638 31.6245C15.2142 31.656 15.263 31.7143 15.2347 31.7915L14.9355 32.6002C14.8827 32.738 14.7386 32.6466 14.7386 32.6466C14.1586 32.3444 13.5168 32.1798 12.8629 32.1655C12.2896 32.1655 11.9211 32.4694 11.9211 32.8821V32.9081C11.9211 33.3892 12.5527 33.5947 13.285 33.8333L13.411 33.8727C14.3819 34.1798 15.4182 34.605 15.4182 35.7743V35.7988C15.4182 37.0626 14.5 37.8477 13.0235 37.8477C12.2983 37.8477 11.6046 37.7359 10.8707 37.3461C10.7321 37.2658 10.5951 37.1965 10.4596 37.098C10.4455 37.0776 10.3832 37.0532 10.4281 36.935H10.4289ZM32.0498 36.935L32.3419 36.1263C32.3844 35.994 32.5081 36.0429 32.5348 36.0594C32.6152 36.109 32.675 36.1507 32.7789 36.2122C33.6388 36.7547 34.4326 36.7602 34.683 36.7602C35.3232 36.7602 35.7224 36.4201 35.7224 35.961V35.9373C35.7224 35.4381 35.109 35.2491 34.3995 35.0318L34.242 34.9814C33.2664 34.7042 32.2246 34.3034 32.2246 33.0703V33.0451C32.2246 31.8749 33.1695 31.0583 34.5208 31.0583L34.668 31.0568C35.4618 31.0568 36.2295 31.2875 36.7862 31.6245C36.8351 31.656 36.8847 31.7143 36.8571 31.7915C36.8296 31.8631 36.5839 32.5246 36.5579 32.6002C36.5036 32.738 36.361 32.6466 36.361 32.6466C35.7808 32.3443 35.1387 32.1796 34.4846 32.1655C33.9113 32.1655 33.5428 32.4694 33.5428 32.8821V32.9081C33.5428 33.3892 34.1735 33.5947 34.9066 33.8333L35.0326 33.8727C36.0035 34.1798 37.039 34.605 37.039 35.7743V35.7988C37.039 37.0626 36.1216 37.8477 34.6452 37.8477C33.9192 37.8477 33.2254 37.7359 32.4923 37.3461C32.3537 37.2658 32.2167 37.1965 32.0805 37.098C32.0663 37.0776 32.0041 37.0532 32.0498 36.935ZM48.0428 33.1325C48.164 33.5388 48.2239 33.9853 48.2239 34.457C48.2239 34.9294 48.164 35.3743 48.0428 35.7806C47.9319 36.1724 47.7416 36.5372 47.4837 36.8524C47.2253 37.1584 46.9012 37.4023 46.5356 37.5658C46.1576 37.739 45.7135 37.8256 45.2143 37.8256C44.715 37.8256 44.2693 37.739 43.8929 37.5658C43.5273 37.4023 43.2032 37.1584 42.9449 36.8524C42.6872 36.5373 42.4967 36.1728 42.385 35.7814C42.2612 35.351 42.2002 34.9049 42.2039 34.457C42.2039 33.9845 42.2645 33.5388 42.385 33.1325C42.5062 32.723 42.6944 32.3624 42.9441 32.0615C43.2031 31.7543 43.5272 31.5084 43.8929 31.3418C44.2701 31.1654 44.7135 31.0765 45.2143 31.0765C45.7151 31.0765 46.1584 31.1654 46.5356 31.3418C46.912 31.5174 47.2317 31.7592 47.4837 32.0615C47.7341 32.3624 47.9231 32.723 48.0428 33.1325ZM46.8112 34.457C46.8112 33.7427 46.6789 33.1813 46.4159 32.7876C46.156 32.397 45.7623 32.208 45.2143 32.208C44.6662 32.208 44.2756 32.397 44.0189 32.7876C43.7614 33.1813 43.6299 33.7427 43.6299 34.457C43.6299 35.1704 43.7614 35.7358 44.0205 36.1326C44.2756 36.5279 44.6662 36.7193 45.2143 36.7193C45.7623 36.7193 46.156 36.5271 46.4159 36.1326C46.6773 35.7358 46.8112 35.1704 46.8112 34.457ZM58.1677 36.5279L58.4701 37.3642C58.5095 37.4666 58.4205 37.5115 58.4205 37.5115C57.9535 37.6926 57.3055 37.8217 56.6747 37.8217C55.6054 37.8217 54.7864 37.5138 54.2399 36.9059C53.6966 36.2996 53.4194 35.4751 53.4194 34.4522C53.4194 33.979 53.4879 33.5309 53.6218 33.1254C53.7557 32.7159 53.9565 32.3553 54.2211 32.0545C54.4958 31.7452 54.8346 31.4996 55.214 31.3347C55.6077 31.1591 56.0708 31.0709 56.5873 31.0709C56.9362 31.0709 57.2464 31.0922 57.5126 31.1316C57.7968 31.1757 58.1756 31.278 58.3354 31.3402C58.3646 31.3513 58.4457 31.3906 58.4126 31.4859C58.2961 31.8143 58.2165 32.0285 58.1087 32.3277C58.0614 32.4553 57.9654 32.4127 57.9654 32.4127C57.5598 32.2852 57.1708 32.2269 56.6629 32.2269C56.0526 32.2269 55.5944 32.4301 55.2951 32.8277C54.9927 33.2285 54.8234 33.7538 54.8211 34.4522C54.8187 35.2184 55.0109 35.7862 55.351 36.1374C55.6904 36.4878 56.1645 36.6649 56.7613 36.6649C57.0031 36.6649 57.2315 36.6492 57.437 36.6169C57.6401 36.5846 57.8307 36.5216 58.0102 36.4516C58.0102 36.4516 58.126 36.4082 58.1677 36.5279ZM64.4752 32.9002C64.7437 33.8404 64.6035 34.6522 64.5988 34.6971C64.5885 34.8042 64.4783 34.8058 64.4783 34.8058L60.3056 34.8026C60.3316 35.4365 60.4836 35.8854 60.7907 36.1901C61.0923 36.4886 61.5711 36.6799 62.2191 36.6807C63.2097 36.6831 63.6326 36.4838 63.9326 36.3728C63.9326 36.3728 64.0468 36.3319 64.0901 36.4453L64.3618 37.2099C64.4169 37.3382 64.3728 37.3831 64.3263 37.4091C64.0649 37.5532 63.431 37.8225 62.2246 37.8256C61.6396 37.828 61.1301 37.7445 60.7104 37.5815C60.3116 37.4338 59.9523 37.1958 59.6607 36.8862C59.382 36.5824 59.1751 36.22 59.0552 35.8255C58.926 35.3934 58.8626 34.9442 58.867 34.4932C58.867 34.0207 58.9276 33.5719 59.0497 33.1616C59.1717 32.7482 59.3615 32.3836 59.6143 32.0773C59.8762 31.7647 60.2047 31.5145 60.5757 31.345C60.9584 31.1646 61.4325 31.0765 61.9538 31.0765C62.4002 31.0765 62.8081 31.1725 63.1475 31.319C63.409 31.4308 63.672 31.6332 63.9413 31.923C64.1114 32.1056 64.3704 32.5057 64.4752 32.9002ZM60.3253 33.7719H63.3019C63.2711 33.3892 63.1963 33.0459 63.0247 32.7876C62.7632 32.397 62.4026 32.182 61.8553 32.182C61.3073 32.182 60.9183 32.397 60.6608 32.7876C60.4923 33.0459 60.3844 33.375 60.3253 33.7719ZM31.0521 32.9002C31.3198 33.8404 31.182 34.6522 31.1773 34.6971C31.1663 34.8042 31.056 34.8058 31.056 34.8058L26.8826 34.8026C26.9093 35.4365 27.0605 35.8854 27.3684 36.1901C27.67 36.4886 28.148 36.6799 28.7961 36.6807C29.7867 36.6831 30.2111 36.4838 30.5103 36.3728C30.5103 36.3728 30.6245 36.3319 30.667 36.4453L30.9395 37.2099C30.9946 37.3382 30.9505 37.3831 30.9048 37.4091C30.6418 37.5532 30.0071 37.8225 28.8024 37.8256C28.2165 37.828 27.707 37.7445 27.2881 37.5815C26.8891 37.4336 26.5297 37.1957 26.2376 36.8862C25.9597 36.5821 25.7533 36.2197 25.6337 35.8255C25.5036 35.3935 25.4396 34.9443 25.4439 34.4932C25.4439 34.0207 25.5053 33.5719 25.6266 33.1616C25.7401 32.7658 25.9324 32.3969 26.192 32.0773C26.4539 31.7649 26.7821 31.5148 27.1527 31.345C27.5369 31.1646 28.011 31.0765 28.5307 31.0765C28.9414 31.0755 29.3481 31.158 29.726 31.319C29.9875 31.4308 30.2505 31.6332 30.519 31.923C30.6891 32.1056 30.9481 32.5057 31.0521 32.9002ZM26.9015 33.7719H29.8796C29.8481 33.3892 29.7733 33.0459 29.6024 32.7876C29.3425 32.397 28.9803 32.182 28.433 32.182C27.885 32.182 27.4952 32.397 27.2393 32.7876C27.0692 33.0459 26.9621 33.375 26.9015 33.7719ZM19.542 33.5727C19.542 33.5727 19.8712 33.6018 20.2302 33.6538V33.4774C20.2302 32.9207 20.1145 32.6584 19.8869 32.4828C19.6538 32.3049 19.3058 32.2127 18.8554 32.2127C18.8554 32.2127 17.8396 32.2001 17.0364 32.6364C16.9994 32.6584 16.9686 32.671 16.9686 32.671C16.9686 32.671 16.8678 32.7065 16.8316 32.6033L16.5363 31.8096C16.4907 31.6954 16.5733 31.6434 16.5733 31.6434C16.949 31.3505 17.8592 31.1733 17.8592 31.1733C18.2288 31.1084 18.603 31.0739 18.9782 31.0702C19.8113 31.0702 20.4562 31.2639 20.8948 31.6474C21.3342 32.0324 21.5579 32.6529 21.5579 33.4892L21.5602 37.3067C21.5602 37.3067 21.5689 37.417 21.4642 37.4422C21.4642 37.4422 21.3106 37.4847 21.1728 37.517C21.0334 37.5492 20.531 37.6516 20.1208 37.7209C19.7018 37.7911 19.2778 37.8264 18.853 37.8264C18.4475 37.8264 18.0758 37.7886 17.7482 37.7138C17.4429 37.6499 17.1538 37.5245 16.8986 37.3453C16.6659 37.1764 16.4791 36.952 16.3552 36.6925C16.2269 36.4303 16.1623 36.1098 16.1623 35.7397C16.1623 35.3767 16.2387 35.053 16.3859 34.7774C16.534 34.5034 16.7371 34.2711 16.9923 34.0892C17.2558 33.9036 17.5505 33.7668 17.8624 33.6853C18.1876 33.5986 18.5333 33.5538 18.8908 33.5538C19.153 33.5538 19.3719 33.5593 19.542 33.5727ZM17.8813 36.5051C17.8789 36.5043 18.2553 36.8004 19.105 36.7484C19.7019 36.7122 20.231 36.5988 20.231 36.5988V34.7011C20.231 34.7011 19.6971 34.6137 19.0979 34.605C18.2482 34.5948 17.886 34.9074 17.8884 34.9066C17.638 35.0845 17.5159 35.3483 17.5159 35.7137C17.5159 35.9476 17.5576 36.1303 17.6419 36.2578C17.6947 36.3421 17.7175 36.3736 17.8813 36.5051ZM53.2021 31.4221C53.1627 31.5363 52.9604 32.108 52.8871 32.2978C52.8604 32.3702 52.8163 32.4198 52.7351 32.4112C52.7351 32.4112 52.4958 32.3561 52.2769 32.3561C52.1264 32.3561 51.9115 32.375 51.7178 32.4348C51.5235 32.4945 51.3467 32.6007 51.2028 32.7443C51.05 32.8915 50.9264 33.0986 50.8366 33.3585C50.7453 33.6199 50.698 34.0357 50.698 34.453V37.5618C50.6981 37.5785 50.695 37.5949 50.6887 37.6103C50.6824 37.6257 50.6731 37.6397 50.6614 37.6514C50.6497 37.6632 50.6358 37.6726 50.6204 37.679C50.6051 37.6853 50.5886 37.6886 50.572 37.6886H49.4767C49.4599 37.6888 49.4433 37.6857 49.4278 37.6795C49.4122 37.6733 49.398 37.6641 49.386 37.6524C49.374 37.6407 49.3645 37.6267 49.3579 37.6113C49.3513 37.5959 49.3478 37.5794 49.3476 37.5626V31.3379C49.3476 31.2678 49.3987 31.2119 49.4688 31.2119H50.5374C50.6083 31.2119 50.6587 31.2678 50.6587 31.3379V31.8466C50.8185 31.6324 51.1051 31.4434 51.3642 31.3269C51.6241 31.2087 51.9146 31.1221 52.4399 31.1536C52.7131 31.1702 53.0682 31.245 53.1399 31.2725C53.1539 31.2781 53.1667 31.2865 53.1774 31.2971C53.1881 31.3077 53.1967 31.3203 53.2024 31.3343C53.2082 31.3482 53.2112 31.3631 53.2111 31.3782C53.2111 31.3933 53.208 31.4083 53.2021 31.4221ZM42.9102 28.5377C42.9393 28.5495 43.0189 28.5881 42.9874 28.6826L42.6669 29.5591C42.6401 29.6252 42.6228 29.6646 42.4866 29.6236C42.3064 29.567 42.1187 29.5378 41.9298 29.537C41.7645 29.537 41.6149 29.5583 41.4826 29.6024C41.3502 29.6447 41.2302 29.7188 41.1329 29.8181C41.0035 29.9432 40.9035 30.0954 40.84 30.2638C40.6865 30.7048 40.6274 31.1749 40.6195 31.2048H41.9535C42.0661 31.2048 42.1015 31.2568 42.0905 31.3395L41.9346 32.2072C41.9094 32.3332 41.7952 32.3285 41.7952 32.3285H40.4203L39.4809 37.6485C39.4001 38.1256 39.2773 38.5946 39.1139 39.0501C38.9667 39.4352 38.8147 39.7163 38.5706 39.9848C38.3623 40.2251 38.0973 40.4097 37.7997 40.5218C37.5107 40.6282 37.1595 40.6825 36.776 40.6825C36.5933 40.6825 36.3965 40.6786 36.1642 40.6234C36.0347 40.5939 35.9072 40.5565 35.7823 40.5116C35.7311 40.4935 35.6893 40.4281 35.7193 40.3447C35.7476 40.262 35.9949 39.5856 36.0279 39.4966C36.0705 39.3895 36.1791 39.4305 36.1791 39.4305C36.2531 39.462 36.3051 39.4824 36.4036 39.5021C36.5036 39.5218 36.6374 39.5391 36.739 39.5391C36.9209 39.5391 37.0863 39.5171 37.2304 39.4683C37.4036 39.4123 37.506 39.3108 37.6115 39.1753C37.7217 39.0328 37.8115 38.8399 37.9036 38.5808C37.9958 38.3186 38.08 37.9721 38.1525 37.5524L39.0879 32.3293H38.1666C38.0564 32.3293 38.0186 32.2773 38.0312 32.1938L38.1855 31.3261C38.2099 31.2001 38.3273 31.2048 38.3273 31.2048H39.273L39.3242 30.9229C39.4659 30.0851 39.747 29.448 40.1628 29.0299C40.5809 28.6086 41.1755 28.396 41.9298 28.396C42.1456 28.396 42.3362 28.4102 42.4976 28.4393C42.6559 28.4692 42.7763 28.4968 42.9102 28.5377ZM24.2667 37.5618C24.2667 37.6327 24.2179 37.6886 24.147 37.6886H23.0406C22.9698 37.6886 22.9217 37.6319 22.9217 37.5626V28.6543C22.9217 28.5858 22.9705 28.5291 23.0398 28.5291H24.147C24.2179 28.5291 24.2667 28.5858 24.2667 28.6551V37.5618Z" fill="white"/>
</svg>

<svg xmlns="http://www.w3.org/2000/svg" width="72" height="72" fill="none" viewBox="0 0 72 72"><path fill="#00a1e0" fill-rule="evenodd" d="M29.962 16.296c2.322-2.418 5.556-3.92 9.13-3.92 4.753 0 8.9 2.65 11.108 6.586a15.35 15.35 0 0 1 6.28-1.335c8.572 0 15.52 7.01 15.52 15.658s-6.948 15.659-15.52 15.659c-1.049 0-2.07-.105-3.059-.304a11.35 11.35 0 0 1-9.904 5.81c-1.78 0-3.465-.41-4.964-1.142-1.971 4.638-6.565 7.888-11.917 7.888-5.573 0-10.325-3.527-12.148-8.473a12 12 0 0 1-2.47.257C5.381 52.98 0 47.544 0 40.838A12.16 12.16 0 0 1 6.009 30.32a13.9 13.9 0 0 1-1.15-5.554c0-7.714 6.261-13.966 13.985-13.966a13.96 13.96 0 0 1 11.118 5.496" clip-rule="evenodd"/><path fill="#fff" fill-rule="evenodd" d="m10.429 36.935.291-.809c.047-.138.151-.093.194-.067.081.048.14.092.244.153a3.5 3.5 0 0 0 1.902.548c.642 0 1.04-.34 1.04-.799v-.024c0-.499-.613-.688-1.323-.905l-.157-.05c-.974-.278-2.016-.679-2.016-1.912v-.025c0-1.17.944-1.987 2.295-1.987l.148-.001c.794 0 1.56.23 2.117.568.05.031.099.09.07.166l-.299.81c-.052.137-.196.046-.196.046a4.26 4.26 0 0 0-1.876-.481c-.573 0-.942.303-.942.716v.026c0 .481.632.687 1.364.925l.126.04c.97.307 2.007.732 2.007 1.901v.025c0 1.264-.918 2.049-2.394 2.049-.726 0-1.42-.112-2.153-.502-.139-.08-.276-.15-.411-.248-.015-.02-.077-.045-.032-.163m21.62 0 .293-.809c.042-.132.166-.083.193-.067.08.05.14.092.244.153.86.543 1.654.548 1.904.548.64 0 1.04-.34 1.04-.799v-.024c0-.499-.614-.688-1.323-.905l-.158-.05c-.976-.278-2.017-.679-2.017-1.912v-.025c0-1.17.944-1.987 2.296-1.987l.147-.001c.794 0 1.562.23 2.118.568.05.031.099.09.071.166a89 89 0 0 0-.3.81c-.053.137-.196.046-.196.046a4.26 4.26 0 0 0-1.876-.481c-.574 0-.942.303-.942.716v.026c0 .481.63.687 1.364.925l.126.04c.97.307 2.006.732 2.006 1.901v.025c0 1.264-.917 2.049-2.394 2.049-.726 0-1.42-.112-2.153-.502-.138-.08-.275-.15-.411-.248-.015-.02-.077-.045-.031-.163m15.994-3.803c.121.407.18.853.18 1.325s-.059.917-.18 1.324a3 3 0 0 1-.56 1.071 2.7 2.7 0 0 1-.947.714c-.378.173-.822.26-1.322.26-.499 0-.945-.087-1.321-.26a2.7 2.7 0 0 1-.948-.714 3 3 0 0 1-.56-1.07 4.7 4.7 0 0 1-.181-1.325c0-.473.06-.918.181-1.325.121-.409.31-.77.56-1.07.258-.308.582-.554.948-.72q.568-.265 1.321-.265t1.322.265c.376.175.696.417.948.72.25.3.44.661.559 1.07m-1.232 1.325c0-.714-.132-1.276-.395-1.67-.26-.39-.654-.579-1.202-.579s-.938.189-1.195.58c-.258.393-.39.955-.39 1.669 0 .713.132 1.279.392 1.676.255.395.645.586 1.193.586s.942-.192 1.202-.586c.261-.397.395-.963.395-1.676m11.357 2.07.302.837c.04.103-.05.148-.05.148a5.1 5.1 0 0 1-1.745.31c-1.07 0-1.889-.308-2.435-.916-.543-.606-.82-1.43-.82-2.454 0-.473.068-.921.202-1.327a3 3 0 0 1 .6-1.07c.274-.31.613-.555.992-.72.394-.176.857-.264 1.373-.264q.526 0 .926.06c.284.045.663.147.822.21.03.01.11.05.078.145-.117.328-.196.543-.304.842-.048.127-.144.085-.144.085a4.1 4.1 0 0 0-1.302-.186c-.61 0-1.069.203-1.368.6-.302.401-.472.927-.474 1.625-.002.766.19 1.334.53 1.685.34.35.813.528 1.41.528q.365 0 .676-.048c.203-.032.394-.095.573-.165 0 0 .116-.044.158.076m6.307-3.627c.269.94.129 1.752.124 1.797-.01.107-.12.109-.12.109l-4.173-.003c.026.634.178 1.082.485 1.387.301.299.78.49 1.428.49.99.003 1.414-.196 1.714-.307 0 0 .114-.041.157.072l.272.765c.055.128.01.173-.036.2-.261.143-.895.413-2.101.416-.585.002-1.095-.081-1.515-.245a2.76 2.76 0 0 1-1.05-.695 2.75 2.75 0 0 1-.605-1.06 4.5 4.5 0 0 1-.188-1.333c0-.472.06-.921.183-1.331a3 3 0 0 1 .564-1.085 2.74 2.74 0 0 1 .962-.732c.382-.18.856-.268 1.378-.268.446 0 .854.095 1.194.242q.39.168.793.604c.17.183.43.583.534.977m-4.15.872h2.977c-.03-.383-.106-.726-.277-.984-.262-.391-.622-.606-1.17-.606s-.937.215-1.194.606c-.169.258-.277.587-.336.984M31.052 32.9c.268.94.13 1.752.125 1.797-.01.107-.121.109-.121.109l-4.173-.003c.026.634.178 1.082.485 1.387.302.299.78.49 1.428.49.99.003 1.415-.196 1.714-.307 0 0 .114-.041.157.072l.272.765c.056.128.012.173-.034.2-.263.143-.898.413-2.103.416-.585.002-1.095-.081-1.514-.245a2.8 2.8 0 0 1-1.05-.695 2.8 2.8 0 0 1-.604-1.06 4.5 4.5 0 0 1-.19-1.333c0-.472.061-.921.183-1.331.113-.396.305-.765.565-1.085.262-.312.59-.562.96-.732.385-.18.859-.268 1.379-.268a3 3 0 0 1 1.195.242q.391.168.793.604c.17.183.43.583.533.977m-4.15.872h2.978c-.032-.383-.107-.726-.278-.984-.26-.391-.622-.606-1.169-.606-.548 0-.938.215-1.194.606-.17.258-.277.587-.338.984m-7.36-.2s.33.03.688.082v-.177c0-.556-.116-.819-.343-.994-.233-.178-.581-.27-1.032-.27 0 0-1.015-.013-1.819.423-.037.022-.067.035-.067.035s-.101.035-.137-.068l-.296-.793c-.045-.115.037-.167.037-.167.376-.293 1.286-.47 1.286-.47q.555-.098 1.12-.103c.832 0 1.477.194 1.916.577.44.385.663 1.006.663 1.842l.002 3.818s.009.11-.096.135c0 0-.153.043-.291.075-.14.032-.642.135-1.052.204q-.63.105-1.268.105c-.405 0-.777-.037-1.105-.112a2.3 2.3 0 0 1-.85-.369 1.7 1.7 0 0 1-.543-.652q-.192-.396-.193-.953c0-.363.077-.687.224-.963q.223-.413.606-.688a2.7 2.7 0 0 1 .87-.404q.49-.13 1.029-.131.394-.001.651.019m-1.66 2.933c-.003 0 .373.295 1.223.243a8.5 8.5 0 0 0 1.126-.15v-1.897s-.534-.087-1.133-.096c-.85-.01-1.212.302-1.21.302-.25.178-.372.441-.372.807q0 .352.126.544c.053.084.076.116.24.247m35.32-5.083c-.04.114-.242.686-.315.876-.027.072-.07.122-.152.113 0 0-.24-.055-.458-.055-.15 0-.366.019-.56.079s-.37.166-.514.31a1.54 1.54 0 0 0-.366.614c-.092.26-.139.677-.139 1.094v3.109a.126.126 0 0 1-.126.127h-1.095a.13.13 0 0 1-.13-.126v-6.225c0-.07.052-.126.122-.126h1.068c.071 0 .122.056.122.126v.509c.16-.215.446-.404.705-.52.26-.118.55-.205 1.076-.173.273.016.628.091.7.119a.113.113 0 0 1 .062.15M42.91 28.538c.03.011.109.05.077.145l-.32.876c-.027.066-.044.106-.18.065a1.9 1.9 0 0 0-.557-.087q-.249 0-.447.065a.85.85 0 0 0-.35.216 1.2 1.2 0 0 0-.293.446c-.154.44-.213.91-.22.94h1.334c.112 0 .148.053.136.136l-.155.867c-.026.126-.14.121-.14.121H40.42l-.94 5.32q-.12.718-.366 1.402c-.147.385-.3.666-.543.935-.209.24-.474.425-.771.537-.29.106-.64.16-1.024.16-.183 0-.38-.003-.612-.059a3 3 0 0 1-.382-.111c-.05-.019-.093-.084-.063-.167l.309-.848c.043-.108.151-.066.151-.066a1 1 0 0 0 .225.071c.1.02.233.037.335.037q.274.001.491-.07c.174-.057.276-.158.382-.294.11-.142.2-.335.292-.594.092-.262.176-.609.248-1.029l.936-5.223h-.921c-.11 0-.148-.052-.136-.135l.154-.868c.025-.126.142-.121.142-.121h.946l.051-.282c.142-.838.423-1.475.839-1.893.418-.421 1.013-.634 1.767-.634a3.3 3.3 0 0 1 .98.142m-18.643 9.024c0 .07-.05.127-.12.127h-1.106c-.071 0-.12-.057-.12-.126v-8.909c0-.068.05-.125.119-.125h1.107c.07 0 .12.057.12.126z" clip-rule="evenodd"/></svg>
